X:0896
T:Sheela na Gigg,
C:Irish.
M:9/8 % Aird bars it in 6/8
L:1/8
Q:3/8=120
I: :: :: ||
Z:Jack Campin * www.campin.me.uk * 2009
K:D
FGA ABc d3 |FGA ABc B3:|
d2d ded cBA|B2B dcB AGF|d2d dfd edc|Bcd dcB AFD:|
B2B BGE BGE|B2B BGE BGE|B2B BGE BGE|FGA Bcd AFD|]
<end>
<start>
